src/shared/assets/dialog/dialog-message-voice-wave.svg

<svg width="44" height="26" viewBox="0 0 44 26" fill="none" xmlns="http://www.w3.org/2000/svg">
<path d="M22 0C23.1046 0 24 0.895431 24 2V24C24 25.1046 23.1046 26 22 26C20.8956 25.9998 20 25.1044 20 24V2C20 0.895558 20.8956 0.000206133 22 0ZM32 5C33.1046 5 34 5.89543 34 7V19C34 20.1046 33.1046 21 32 21C30.8956 20.9998 30 20.1044 30 19V7C30 5.89556 30.8956 5.00021 32 5ZM12 7C13.1046 7 14 7.89543 14 9V17C14 18.1046 13.1046 19 12 19C10.8956 18.9998 10 18.1044 10 17V9C10 7.89556 10.8956 7.00021 12 7ZM2 8C3.10457 8 4 8.89543 4 10V15C4 16.1046 3.10457 17 2 17C0.895606 16.9998 0 16.1044 0 15V10C8.0509e-09 8.89556 0.895606 8.00021 2 8ZM42 10C43.1046 10 44 10.8954 44 12V14C44 15.1046 43.1046 16 42 16C40.8956 15.9998 40 15.1044 40 14V12C40 10.8956 40.8956 10.0002 42 10Z" fill="black"/>
</svg>

<svg xmlns="http://www.w3.org/2000/svg" fill="none" viewBox="0 0 44 26"><path fill="#000" d="M22 0a2 2 0 0 1 2 2v22a2 2 0 1 1-4 0V2a2 2 0 0 1 2-2m10 5a2 2 0 0 1 2 2v12a2 2 0 1 1-4 0V7a2 2 0 0 1 2-2M12 7a2 2 0 0 1 2 2v8a2 2 0 1 1-4 0V9a2 2 0 0 1 2-2M2 8a2 2 0 0 1 2 2v5a2 2 0 1 1-4 0v-5a2 2 0 0 1 2-2m40 2a2 2 0 0 1 2 2v2a2 2 0 1 1-4 0v-2a2 2 0 0 1 2-2"/></svg>
